icons/svg/seamark/buoy_barrel.svg

<?xml version="1.0" encoding="UTF-8" standalone="no"?>
<svg
   xmlns:dc="http://purl.org/dc/elements/1.1/"
   xmlns:cc="http://creativecommons.org/ns#"
   xmlns:rdf="http://www.w3.org/1999/02/22-rdf-syntax-ns#"
   xmlns:svg="http://www.w3.org/2000/svg"
   xmlns="http://www.w3.org/2000/svg"
   xmlns:sodipodi="http://sodipodi.sourceforge.net/DTD/sodipodi-0.dtd"
   xmlns:inkscape="http://www.inkscape.org/namespaces/inkscape"
   width="580"
   height="580"
   id="svg2"
   version="1.1"
   inkscape:version="0.48.4 r9939"
   sodipodi:docname="buoy_barrel.svg">
  <defs
     id="defs13">
    <inkscape:path-effect
       effect="gears"
       id="path-effect3774"
       is_visible="true"
       teeth="6"
       phi="-1.2" />
    <inkscape:path-effect
       effect="bend_path"
       id="path-effect3772"
       is_visible="false"
       bendpath="m 95.790098,316.51174 c 144.429032,-206.42506 223.313032,-11.7428 339.548092,0"
       prop_scale="1.19"
       scale_y_rel="false"
       vertical="false"
       bendpath-nodetypes="cc" />
  </defs>
  <sodipodi:namedview
     pagecolor="#ffffff"
     bordercolor="#666666"
     borderopacity="1"
     objecttolerance="10"
     gridtolerance="10"
     guidetolerance="10"
     inkscape:pageopacity="0"
     inkscape:pageshadow="2"
     inkscape:window-width="1920"
     inkscape:window-height="1004"
     id="namedview11"
     showgrid="false"
     inkscape:zoom="1.6275862"
     inkscape:cx="329.12474"
     inkscape:cy="129.34272"
     inkscape:window-x="1680"
     inkscape:window-y="0"
     inkscape:window-maximized="1"
     inkscape:current-layer="svg2" />
  <metadata
     id="metadata2975">image/svg+xmlen<rdf:RDF>
  <cc:Work
     rdf:about="">
    <dc:format>image/svg+xml</dc:format>
    <dc:type
       rdf:resource="http://purl.org/dc/dcmitype/StillImage" />
    <dc:title />
  </cc:Work>
</rdf:RDF>
</metadata>
  <path
     sodipodi:type="inkscape:offset"
     inkscape:radius="19.986744"
     inkscape:original="M 137.71875 378.5 C 137.71875 378.5 137.36648 378.65773 136.75 378.96875 C 136.6832 378.88945 136.62945 378.79774 136.5625 378.71875 L 135.40625 379.6875 C 130.33765 382.5617 117.94555 391.2072 109.375 410.8125 C 96.241498 440.8557 98.306958 483.39104 100.3125 503.84375 L 60.75 503.84375 L 60.75 528.84375 L 241.125 528.84375 C 246.60356 546.84906 263.40503 560.0625 283.125 560.0625 C 302.84498 560.0625 319.64644 546.84906 325.125 528.84375 L 494.34375 528.84375 L 494.34375 503.84375 L 461.875 503.84375 C 461.945 495.92991 461.28373 481.53962 459 455.5625 C 452.98232 387.11214 421.03125 378.9375 421.03125 378.9375 L 137.71875 378.5 z M 263.46875 528.84375 L 302.78125 528.84375 C 298.65627 535.28431 291.43643 539.5 283.125 539.5 C 274.81358 539.5 267.59373 535.28431 263.46875 528.84375 z "
     style="opacity:0.42608696000000001;color:#000000;fill:#acd8f3;fill-opacity:1;fill-rule:nonzero;stroke:#a35151;stroke-width:0;stroke-linecap:round;stroke-linejoin:miter;stroke-miterlimit:4;stroke-opacity:1;stroke-dasharray:none;stroke-dashoffset:0;marker:none;visibility:visible;display:inline;overflow:visible;enable-background:accumulate"
     id="path3908"
     d="m 137.75,358.5 a 19.988743,19.988743 0 0 0 -4.40625,0.53125 19.988743,19.988743 0 0 0 -9.625,4.375 l -0.75,0.625 c -8.40197,5.3141 -22.30935,16.82816 -31.90625,38.78125 -11.852449,27.11276 -13.183816,57.87681 -12.21875,81.03125 l -18.09375,0 a 19.988743,19.988743 0 0 0 -20,20 l 0,25 a 19.988743,19.988743 0 0 0 20,20 l 167.78125,0 c 11.21235,18.63839 31.4587,31.21875 54.59375,31.21875 23.13505,0 43.3814,-12.58036 54.59375,-31.21875 l 156.625,0 a 19.988743,19.988743 0 0 0 20,-20 l 0,-25 a 19.988743,19.988743 0 0 0 -20,-20 l -13.1875,0 c -0.46452,-7.92414 -1.14859,-17.50281 -2.25,-30.03125 -3.27301,-37.23012 -13.9784,-60.69866 -25.71875,-74.9375 -5.87017,-7.11942 -11.93391,-11.84499 -16.875,-14.78125 C 431.37141,361.15749 426,359.5625 426,359.5625 a 19.988743,19.988743 0 0 0 -4.9375,-0.625 L 137.75,358.5 z" />
  <path
     style="fill:#bdbdbd;stroke:#a35151;stroke-width:0;stroke-linecap:round;stroke-linejoin:miter;stroke-opacity:1;color:#000000;fill-opacity:1;fill-rule:nonzero;stroke-miterlimit:4;stroke-dasharray:none;stroke-dashoffset:0;marker:none;visibility:visible;display:inline;overflow:visible;enable-background:accumulate"
     d="m 420.25424,387.69068 31.33474,48.53813 2.45763,83.55933 -349.59746,-1.84323 1.22882,-77.41525 22.11864,-45.4661 13.51695,-6.75848 z"
     id="path3756"
     inkscape:connector-curvature="0"
     sodipodi:nodetypes="cccccccc" />
  <path
     style="fill:none;stroke:#000000;stroke-width:25;stroke-linecap:butt;stroke-linejoin:miter;stroke-miterlimit:4;stroke-opacity:1;stroke-dasharray:none"
     d="m 60.823168,516.57012 433.582302,0"
     id="path3759"
     inkscape:connector-curvature="0"
     sodipodi:nodetypes="cc" />
  <path
     sodipodi:type="arc"
     style="color:#000000;fill:#fefefe;fill-opacity:1;stroke:#000000;stroke-width:25;stroke-linecap:round;stroke-linejoin:round;stroke-miterlimit:10;stroke-opacity:1;stroke-dasharray:none;stroke-dashoffset:0;marker:none;visibility:visible;display:inline;overflow:visible;enable-background:accumulate"
     id="path3759-1"
     sodipodi:cx="210.27438"
     sodipodi:cy="76.036606"
     sodipodi:rx="40.838413"
     sodipodi:ry="40.838413"
     d="m 251.1128,76.036606 a 40.838413,40.838413 0 1 1 -81.67683,0 40.838413,40.838413 0 1 1 81.67683,0 z"
     transform="matrix(0.82289092,0,0,0.82289092,110.16458,453.8318)" />
  <path
     style="fill:none;stroke:#000000;stroke-width:16.79999924;stroke-linecap:butt;stroke-linejoin:round;stroke-miterlimit:4;stroke-opacity:1;stroke-dasharray:none"
     d="m 130.243,384.3582 c 19.94959,23.53421 32.685,64.79972 27.7085,135.57061"
     id="path3759-2"
     inkscape:connector-curvature="0"
     sodipodi:nodetypes="cc" />
  <path
     style="fill:none;stroke:#000000;stroke-width:16.79999924;stroke-linecap:butt;stroke-linejoin:round;stroke-miterlimit:4;stroke-opacity:1;stroke-dasharray:none"
     d="m 106.7465,519.92881 c -4.9765,-70.77089 5.60849,-119.10208 34.15977,-133.42019 l 279.6425,0.16059 c 0,0 38.2317,16.50915 33.88719,130.76982"
     id="path3759-2-1"
     inkscape:connector-curvature="0"
     sodipodi:nodetypes="cccc" />
</svg>

<svg width="580" height="580" viewBox="0 0 580 580" fill="none" xmlns="http://www.w3.org/2000/svg">
<g clip-path="url(#clip0)">
<path opacity="0.426087" d="M137.75 358.5C136.266 358.513 134.788 358.691 133.344 359.031C129.801 359.599 126.476 361.11 123.719 363.406L122.969 364.031C114.567 369.345 100.659 380.859 91.0625 402.812C79.2101 429.925 77.8787 460.689 78.8438 483.844H60.75C58.1232 483.842 55.5218 484.359 53.0946 485.363C50.6674 486.368 48.462 487.841 46.6046 489.698C44.7471 491.556 43.274 493.761 42.2694 496.188C41.2648 498.616 40.7485 501.217 40.75 503.844V528.844C40.7485 531.471 41.2648 534.072 42.2694 536.499C43.274 538.926 44.7471 541.132 46.6046 542.989C48.462 544.847 50.6674 546.32 53.0946 547.324C55.5218 548.329 58.1232 548.845 60.75 548.844H228.531C239.744 567.482 259.99 580.062 283.125 580.062C306.26 580.062 326.506 567.482 337.719 548.844H494.344C496.971 548.845 499.572 548.329 501.999 547.324C504.426 546.32 506.632 544.847 508.489 542.989C510.347 541.132 511.82 538.926 512.824 536.499C513.829 534.072 514.345 531.471 514.344 528.844V503.844C514.345 501.217 513.829 498.616 512.824 496.188C511.82 493.761 510.347 491.556 508.489 489.698C506.632 487.841 504.426 486.368 501.999 485.363C499.572 484.359 496.971 483.842 494.344 483.844H481.156C480.692 475.92 480.008 466.341 478.906 453.812C475.633 416.582 464.928 393.114 453.188 378.875C447.317 371.756 441.254 367.03 436.312 364.094C431.371 361.157 426 359.562 426 359.562C424.387 359.149 422.728 358.939 421.062 358.938L137.75 358.5Z" fill="#ACD8F3"/>
<path d="M420.254 387.69L451.589 436.229L454.047 519.788L104.449 517.945L105.678 440.529L127.797 395.063L141.314 388.305L420.254 387.69Z" fill="#BDBDBD"/>
<path d="M60.8232 516.57H494.406" stroke="black" stroke-width="25"/>
<path d="M316.803 516.401C316.803 525.314 313.262 533.862 306.96 540.164C300.658 546.466 292.11 550.007 283.197 550.007C274.285 550.007 265.737 546.466 259.435 540.164C253.132 533.862 249.592 525.314 249.592 516.401C249.592 507.489 253.132 498.941 259.435 492.639C265.737 486.336 274.285 482.796 283.197 482.796C292.11 482.796 300.658 486.336 306.96 492.639C313.262 498.941 316.803 507.489 316.803 516.401V516.401Z" fill="#FEFEFE" stroke="black" stroke-width="20.5723" stroke-miterlimit="10" stroke-linecap="round" stroke-linejoin="round"/>
<path d="M130.243 384.358C150.193 407.893 162.928 449.158 157.951 519.929" stroke="black" stroke-width="16.8" stroke-linejoin="round"/>
<path d="M106.746 519.929C101.77 449.158 112.355 400.827 140.906 386.509L420.549 386.669C420.549 386.669 458.78 403.179 454.436 517.439" stroke="black" stroke-width="16.8" stroke-linejoin="round"/>
</g>
<defs>
<clipPath id="clip0">
<path d="M0 0H580V580H0V0Z" fill="white"/>
</clipPath>
</defs>
</svg>
